!!!!SEGMENT: pl-cz--iii-860--001-004_volckmer-augustin--litaniae-lauretanae-f-salus-infirmorum.krn
!!!cenid: 17xx:1140
!!!COM: Volckmer, Augustin
!!!COM-rismID: pe30020656
!!!CDT: 1755-~1820
!!!CNT:
!!!OPR: Litaniae Lauretanae F
!!!OTL: Salus infirmorum
!!!OMV: 004
!!!PDT:
!!!AGN: Sacred; Mass
!!!YEC: Copyright 2022 Narodowy Instytut Fryderyka Chopina (https://polishscores.org)
!!!YEM: License CC-BY-4.0 (https://creativecommons.org/licenses/by/4.0)
!!!SMS-siglum: PL-CZ
!!!SMS-shelfmark: III-860
!!!SMS-shelfwork: 001-004 M
!!!SMS-variant:
!!!SMS-altvar:
!!!NIFC-rismSourceID: 300001390
!!!NIFC-rismChildID: 300001390
!!!NIFC-islandoraID: pl-cz:41326
!!!URL-pdf-islandora: https://repozytorium.nifc.pl/islandora/object/pl-cz%3A41326/datastream/PDF/view
!!!URL-scan: https://polish.musicsources.pl/pl/lokalizacje/galeria/rekopisy/7018/1 @EN{Scan on Polish Music Sources Website} @PL{Skany w portalu Dziedzictwo Muzyki Polskiej w otwartym dostępie}
!!!IIIF:
!!!ONB-nifc: UWAGA: części Litanii: Kyrie, Sancta Maria, Virgo prudentissima, Salus infirmorum, Regina angelorum, Agnus Dei
!!!AIN: 1 alto 1 bass 2 cor 2 oboe 1 organ 1 soprn 1 tenor 1 viola 2 violn
!!!key: f
**kern	**fba	**kern	**dynam	**kern	**dynam	**kern	**dynam	**kern	**text	**text	**dynam	**kern	**text	**dynam	**kern	**text	**dynam	**kern	**text	**dynam	**kern	**dynam	**kern	**dynam	**kern	**dynam	**kern	**dynam
*	*	*group4	*	*group4	*	*group4	*	*group3	*	*	*	*group3	*	*	*group3	*	*	*group3	*	*	*group2	*	*group2	*	*group1	*	*group1	*
*part12	*	*part11	*	*part10	*	*part9	*	*part8	*	*	*	*part7	*	*	*part6	*	*	*part5	*	*	*part4	*	*part3	*	*part2	*	*part1	*
*staff12	*	*staff11	*	*staff10	*	*staff9	*	*staff8	*	*	*	*staff7	*	*	*staff6	*	*	*staff5	*	*	*staff4	*	*staff3	*	*staff2	*	*staff1	*
*I"Organo.	*	*I"Viola obgl per expressivo.	*	*I"Violino Secundo.	*	*I"Violino Primo.	*	*I"Baſso.	*	*	*	*I"Tenore.	*	*	*I"Alto	*	*	*I"Canto.	*	*	*I"Corno Secundo.	*	*I"Corno Primo	*	*I"Hautbois Secunda.	*	*I"Hautbois Prima.	*
*I'org	*	*I'vla	*	*I'vl 2	*	*I'vl 1	*	*I'B	*	*	*	*I'T	*	*	*I'A	*	*	*I'S	*	*	*I'cor 2	*	*I'cor 1	*	*I'ob 2	*	*I'ob 1	*
*Iorgan	*	*Iviola	*	*Ivioln	*	*Ivioln	*	*Ibass	*	*	*	*Itenor	*	*	*Ialto	*	*	*Isoprn	*	*	*Icor	*	*Icor	*	*Ioboe	*	*Ioboe	*
*ICklav	*	*ICstr	*	*ICstr	*	*ICstr	*	*ICvox	*	*	*	*ICvox	*	*	*ICvox	*	*	*ICvox	*	*	*ICbras	*	*ICbras	*	*ICww	*	*ICww	*
*IGcont	*	*	*	*	*	*	*	*IGcoro	*	*	*	*IGcoro	*	*	*IGcoro	*	*	*IGcoro	*	*	*	*	*	*	*	*	*	*
*clefF4	*	*clefC3	*	*clefG2	*	*clefG2	*	*clefF4	*	*	*	*clefC4	*	*	*clefC3	*	*	*clefC1	*	*	*clefG2	*	*clefG2	*	*clefG2	*	*clefG2	*
*	*	*	*	*	*	*	*	*	*	*	*	*	*	*	*	*	*	*	*	*	*ITrd4c7	*	*ITrd4c7	*	*	*	*	*
*k[e-b-d-a-]	*	*k[e-b-d-a-]	*	*k[b-e-a-d-]	*	*k[b-e-a-d-]	*	*k[b-a-e-d-]	*	*	*	*k[b-e-a-d-]	*	*	*k[b-e-a-d-]	*	*	*k[b-e-a-d-]	*	*	*k[b-]	*	*k[b-]	*	*k[b-e-a-d-]	*	*k[b-e-a-d-]	*
*f:	*	*f:	*	*f:	*	*f:	*	*f:	*	*	*	*f:	*	*	*f:	*	*	*f:	*	*	*f:	*	*f:	*	*f:	*	*f:	*
*M4/4	*	*M4/4	*	*M4/4	*	*M4/4	*	*M4/4	*	*	*	*M4/4	*	*	*M4/4	*	*	*M4/4	*	*	*M4/4	*	*M4/4	*	*M4/4	*	*M4/4	*
*met(c)	*	*met(c)	*	*met(c)	*	*met(c)	*	*met(c)	*	*	*	*met(c)	*	*	*met(c)	*	*	*met(c)	*	*	*met(c)	*	*met(c)	*	*met(c)	*	*met(c)	*
*	*	*	*	*	*	*all\right	*	*	*	*	*	*	*	*	*	*	*	*	*	*	*	*	*	*	*	*	*	*
=1	=1	=1	=1	=1	=1	=1	=1	=1	=1	=1	=1	=1	=1	=1	=1	=1	=1	=1	=1	=1	=1	=1	=1	=1	=1	=1	=1	=1
*	*	*	*	*	*	*	*	*	*	*	*	*	*	*	*	*	*	*	*	*	*	*	*	*	*	*	*2\right	*
!LO:TX:b:i:t=Tutti:color=red	!	!	!	!	!	!	!	!	!	!	!	!	!	!	!	!	!	!	!	!	!	!	!	!	!	!	!	!
!LO:TX:a:i:t=Largo	!	!LO:TX:a:i:t=Largo	!	!LO:TX:a:i:t=Tarde	!LO:DY:color=red	!LO:TX:a:Bi:t=Largo.	!LO:DY:color=red	!LO:TX:a:i:t=Largo	!	!	!LO:DY:a:color=red:rj	!LO:TX:a:i:t=Largo	!	!LO:DY:color=red:rj:b	!LO:TX:a:i:t=allegro	!	!LO:DY:color=red:rj	!LO:TX:a:i:t=Largo	!	!LO:DY:a:color=red	!LO:TX:a:i:t=in f	!LO:DY:color=red:rj	!LO:TX:a:i:t=Largo\nin F	!LO:DY:color=red	!LO:TX:a:i:t=Largo	!LO:DY:color=red	!LO:TX:a:i:t=Lārgo	!LO:DY:color=red
8F\L	5_ 3_	16r	.	16r	f	16r	f	4F\	Sa-	Je-	f	4f\	Sa-	f	4a-\	Sa-	f	4cc\	Sa-	f	8F/	f	8f\	f	2a-/	f	2cc\	f
!	!	!	!LO:DY:color=red	!	!	!	!	!	!	!	!	!	!	!	!	!	!	!	!	!	!	!	!	!	!	!	!	!
.	.	16f\LL|	f	16a-/LL|	.	16cc\LL|	.	.	.	.	.	.	.	.	.	.	.	.	.	.	.	.	.	.	.	.	.	.
8F\	.	(16f\	.	(16a-/	.	(16cc\	.	.	.	.	.	.	.	.	.	.	.	.	.	.	8r	.	8r	.	.	.	.	.
.	.	16c\JJ)	.	16f/JJ)	.	16a-\JJ)	.	.	.	.	.	.	.	.	.	.	.	.	.	.	.	.	.	.	.	.	.	.
8F\	.	16r	.	16r	.	16r	.	4F\	-lus	-su	.	4f\	-lus	.	4a-\	-lus	.	4cc\	-lus	.	8F/	.	8f\	.	.	.	.	.
.	.	16f\LL|	.	16c/LL|	.	16a-/LL|	.	.	.	.	.	.	.	.	.	.	.	.	.	.	.	.	.	.	.	.	.	.
8F\J	.	(16f\	.	(16c/	.	(16a-/	.	.	.	.	.	.	.	.	.	.	.	.	.	.	8r	.	8r	.	.	.	.	.
.	.	16c\JJ)	.	16A-/JJ)	.	16f/JJ)	.	.	.	.	.	.	.	.	.	.	.	.	.	.	.	.	.	.	.	.	.	.
*2\right	*	*	*	*	*	*	*	*	*	*	*	*	*	*	*	*	*	*	*	*	*	*	*	*	*	*	*	*
*tremolo	*	*	*	*	*	*	*	*	*	*	*	*	*	*	*	*	*	*	*	*	*	*	*	*	*	*	*	*
8F\L	x	16r	.	16r	.	16r	.	4.F\	in-	de-	.	4.f\	in-	.	4.a-\	in-	.	4.cc\	in-	.	8F/	.	8f\	.	4.a-/	.	4.cc\	.
.	.	16f\LL|	.	16c/LL|	.	(16c/LL	.	.	.	.	.	.	.	.	.	.	.	.	.	.	.	.	.	.	.	.	.	.
8F\	.	(16f\	.	(16c/	.	16f/)	.	.	.	.	.	.	.	.	.	.	.	.	.	.	8r	.	8r	.	.	.	.	.
.	.	16c\JJ)	.	16f/JJ)	.	16a-/JJ|	.	.	.	.	.	.	.	.	.	.	.	.	.	.	.	.	.	.	.	.	.	.
8F\	.	16c\LL|	.	(16a-/LL	.	(16cc\LL	.	.	.	.	.	.	.	.	.	.	.	.	.	.	8r	.	8r	.	.	.	.	.
.	.	(16c\	.	16a-/	.	16ff\	.	.	.	.	.	.	.	.	.	.	.	.	.	.	.	.	.	.	.	.	.	.
8F\J	.	16f\)	.	16cc/)	.	16aa-\)	.	8F\	-fir-	-cus	.	8c\	-fir-	.	8a-\	-fir-	.	8ff\	-fir-	.	8F/	.	8f\	.	8a-/	.	8ff\	.
.	.	16c\JJ|	.	16a-/JJ|	.	16ff\JJ|	.	.	.	.	.	.	.	.	.	.	.	.	.	.	.	.	.	.	.	.	.	.
=2	=2	=2	=2	=2	=2	=2	=2	=2	=2	=2	=2	=2	=2	=2	=2	=2	=2	=2	=2	=2	=2	=2	=2	=2	=2	=2	=2	=2
8G\L	6\ 4	8c\L	.	(16a-/LL	.	(16ff\LL	.	8C/	-mo-	mo-	.	8c\	-mo-	.	16a-\LL	-mo-	.	16ff\LL	-mo-	.	8C/L	.	8c/L	.	(16a-/LL	.	(16ff\LL	.
.	.	.	.	16g/)	.	16een\)	.	.	.	.	.	.	.	.	16g\JJ	.	.	16een\JJ	.	.	.	.	.	.	16g/J)	.	16een\J)	.
8G\	.	16c\L|	.	16g/|	.	16ee\|	.	8C/	-rum	-rum	.	8c\	-rum	.	8g\	-rum	.	8ee\	-rum	.	8C/J	.	8c/J	.	8g/J	.	8ee\J	.
.	.	16c\JJ|	.	16g/JJ|	.	16ee\JJ|	.	.	.	.	.	.	.	.	.	.	.	.	.	.	.	.	.	.	.	.	.	.
!	!	!	!	!	!	!LO:TX:t=P:problem:mixed beam	!	!	!	!	!	!	!	!	!	!	!	!	!	!	!	!	!	!	!	!	!	!
8G\	.	8c\L	.	16g/LL|	.	16ee\LL|	.	4r	.	.	.	4r	.	.	4r	.	.	4r	.	.	8C/	.	8c/	.	4r	.	4r	.
.	.	.	.	16c/	.	16c/|	.	.	.	.	.	.	.	.	.	.	.	.	.	.	.	.	.	.	.	.	.	.
8G\J	.	8c\J	.	16c/	.	16en/|	.	.	.	.	.	.	.	.	.	.	.	.	.	.	8r	.	8r	.	.	.	.	.
.	.	.	.	16en/JJ	.	16g/JJ|	.	.	.	.	.	.	.	.	.	.	.	.	.	.	.	.	.	.	.	.	.	.
*Xtremolo	*	*	*	*	*	*	*	*	*	*	*	*	*	*	*	*	*	*	*	*	*	*	*	*	*	*	*	*
!	!	!	!	!LO:LB:g=original	!	!	!	!	!	!	!	!	!	!	!	!	!	!	!	!	!	!	!	!	!	!	!	!
8C/L	7_ 5_	16r	.	16r	.	16r	.	4C/	Re-	.	.	4B-\	Re-	.	4g\	Re-	.	4ee\	Re-	.	8C/	.	8c/	.	2g/	.	2een\	.
.	.	16en\LL|	.	16g/LL|	.	16b-\LL|	.	.	.	.	.	.	.	.	.	.	.	.	.	.	.	.	.	.	.	.	.	.
8C/	.	(16e\	.	(16g/	.	(16b-\	.	.	.	.	.	.	.	.	.	.	.	.	.	.	8r	.	8r	.	.	.	.	.
.	.	16c\JJ)	.	16en/JJ)	.	16g\JJ)	.	.	.	.	.	.	.	.	.	.	.	.	.	.	.	.	.	.	.	.	.	.
8En/	.	16r	.	16r	.	16r	.	8C/	-fu-	.	.	8B-\	-fu-	.	8g\	-fu-	.	8ee\	-fu-	.	8C/	.	8c/	.	.	.	.	.
.	.	16c\LL|	.	16g/LL|	.	16een\LL|	.	.	.	.	.	.	.	.	.	.	.	.	.	.	.	.	.	.	.	.	.	.
8C/J	.	(16c\	.	(16g/	.	(16ee\	.	16C/	-gi-	.	.	16B-\	-gi-	.	16g\	-gi-	.	16ee\	-gi-	.	8r	.	8r	.	.	.	.	.
.	.	16g\JJ)	.	16e/JJ)	.	16cc\JJ)	.	16C/	-um	.	.	16B-\	-um	.	16g\	-um	.	16ee\	-um	.	.	.	.	.	.	.	.	.
=3	=3	=3	=3	=3	=3	=3	=3	=3	=3	=3	=3	=3	=3	=3	=3	=3	=3	=3	=3	=3	=3	=3	=3	=3	=3	=3	=3	=3
*tremolo	*	*	*	*	*	*	*	*	*	*	*	*	*	*	*	*	*	*	*	*	*	*	*	*	*	*	*	*
!	!	!	!	!LO:TX:t=P:problem:mixed beam	!	!LO:TX:t=P:problem:mixed beam	!	!	!	!	!	!	!	!	!	!	!	!	!	!	!	!	!	!	!	!	!	!
8C/L	x	16r	.	(16een\LL	.	16gg\LL|	.	4C/	pec-	.	.	4en\	Pec-	.	4b-\	Pec-	.	4gg\	Pec-	.	4C/	.	4c/	.	4en/	.	4gg\	.
.	.	16g\LL|	.	16c/)	.	16c/|	.	.	.	.	.	.	.	.	.	.	.	.	.	.	.	.	.	.	.	.	.	.
8C/	.	(16g\	.	16c/|	.	16en/|	.	.	.	.	.	.	.	.	.	.	.	.	.	.	.	.	.	.	.	.	.	.
.	.	16c\JJ)	.	16en/JJ|	.	16g/JJ|	.	.	.	.	.	.	.	.	.	.	.	.	.	.	.	.	.	.	.	.	.	.
8C/	.	16en\LL	.	(16g/LL	.	(16cc\LL	.	4En\	-ca-	.	.	4c\	-ca-	.	4g\	-ca-	.	4b-\	-ca-	.	8C/L	.	8c/L	.	4g/	.	4b-/	.
.	.	16g\	.	16cc/)	.	16een\	.	.	.	.	.	.	.	.	.	.	.	.	.	.	.	.	.	.	.	.	.	.
8C/J	.	16e\	.	16b-/	.	16gg\)	.	.	.	.	.	.	.	.	.	.	.	.	.	.	8C/J	.	8c/J	.	.	.	.	.
.	.	16c\JJ	.	16g/JJ	.	16b-\JJ|	.	.	.	.	.	.	.	.	.	.	.	.	.	.	.	.	.	.	.	.	.	.
*Xtremolo	*	*	*	*	*	*	*	*	*	*	*	*	*	*	*	*	*	*	*	*	*	*	*	*	*	*	*	*
8F\L	3	8c\L	.	(16g/LL	.	(16b-/LL	.	4F\	-to-	.	.	4c\	-to-	.	8g\L	-to-	.	8b-\L	-to-	.	8C/L	.	8c/L	.	8g/L	.	8b-/L	.
.	.	.	.	16f/	.	16a-X/	.	.	.	.	.	.	.	.	.	.	.	.	.	.	.	.	.	.	.	.	.	.
8F\	.	16c\L	.	16en/	.	16g/	.	.	.	.	.	.	.	.	8f\J	.	.	8a-\J	.	.	8F/J	.	8c/J	.	8f/J	.	8a-/J	.
.	.	16c\JJ	.	16f/JJ)	.	16a-/JJ)	.	.	.	.	.	.	.	.	.	.	.	.	.	.	.	.	.	.	.	.	.	.
8F\J	.	8c\	.	8f/	.	8a-/	.	8FF,</	-rum	.	.	8c\	-rum	.	8f\	-rum	.	8a-,<\	-rum	.	4F/	.	4c/	.	8f/	.	8a-/	.
8r	.	8r	.	8r	.	8r	.	8F\	o-	.	.	8c\	o-	.	16a-\LL	o-	.	16cc\LL	o-	.	.	.	.	.	8r	.	8r	.
.	.	.	.	.	.	.	.	.	.	.	.	.	.	.	16f\JJ	.	.	16a-\JJ	.	.	.	.	.	.	.	.	.	.
!	!	!LO:LB:g=original	!	!	!	!	!	!	!	!	!	!	!	!	!	!	!	!	!	!	!	!	!	!	!	!	!	!
=4	=4	=4	=4	=4	=4	=4	=4	=4	=4	=4	=4	=4	=4	=4	=4	=4	=4	=4	=4	=4	=4	=4	=4	=4	=4	=4	=4	=4
!LO:TX:a:t=1	!	!LO:TX:a:t=1	!	!LO:TX:a:t=i	!	!LO:TX:a:t=i	!	!	!	!	!	!	!	!	!	!	!	!	!	!	!	!	!	!	!LO:TX:a:t=1	!	!LO:TX:a:t=1	!
1r	.	1r	.	1r	.	1r	.	4En\	-ra	.	.	4c\	-ra	.	4en\	-ra	.	4g\	-ra	.	4F/	.	4c/	.	1r	.	1r	.
*	*	*	*	*	*	*	*	*	*ij	*	*	*	*	*	*	*	*	*	*ij	*	*	*	*	*	*	*	*	*
.	.	.	.	.	.	.	.	4F\	o-	.	.	4c\	o-	.	4f\	o-	.	4a-\	o-	.	4F/	.	4c/	.	.	.	.	.
.	.	.	.	.	.	.	.	4E\	-ra	.	.	4.c\	-ra	.	4.g\	-ra	.	4.b-\	-ra	.	4C/	.	4c/	.	.	.	.	.
*	*	*	*	*	*	*	*	*	*Xij	*	*	*	*	*	*	*	*	*	*Xij	*	*	*	*	*	*	*	*	*
.	.	.	.	.	.	.	.	4F\	pro	.	.	.	.	.	.	.	.	.	.	.	4F/	.	4c/	.	.	.	.	.
.	.	.	.	.	.	.	.	.	.	.	.	8c\	pro	.	8f\	pro	.	8a-\	pro	.	.	.	.	.	.	.	.	.
!	!	!	!	!	!	!LO:LB:g=original	!	!	!	!	!	!LO:LB:g=original	!	!	!LO:LB:g=original	!	!	!	!	!	!	!	!	!	!	!	!	!
=5	=5	=5	=5	=5	=5	=5	=5	=5	=5	=5	=5	=5	=5	=5	=5	=5	=5	=5	=5	=5	=5	=5	=5	=5	=5	=5	=5	=5
2r	.	2r	.	2r	.	2r	.	8F\	no-	.	.	8c\	no-	.	8f\	no-	.	8a-\	no-	.	8C/L	.	8c/L	.	2r	.	2r	.
.	.	.	.	.	.	.	.	8C/	-bis	.	.	8c\	-bis	.	8en\	-bis	.	8g\	-bis	.	8C/J	.	8c/J	.	.	.	.	.
!	!	!	!	!	!	!	!	!	!	!	!	!	!	!	!	!	!	!LO:LB:g=original	!	!	!	!	!	!	!	!	!	!
.	.	.	.	.	.	.	.	4r	.	.	.	4r	.	.	4r	.	.	4r	.	.	4r	.	4r	.	.	.	.	.
*tremolo	*	*	*	*	*	*	*	*	*	*	*	*	*	*	*	*	*	*	*	*	*	*	*	*	*	*	*	*
!	!	!	!	!	!	!LO:TX:t=P:problem:mixed beam	!	!LO:LB:g=original	!	!	!	!	!	!	!LO:SIC:v:o=4.e\	!	!	!	!	!	!	!	!	!	!	!	!	!
8A-\L	3	(16c\LL	.	(16e-X/LL	.	(16a-X/LL	.	4.A-\	Con-	.	.	4.A-\	Con-	.	4.e-X\	Con-	.	4.cc\	Con-	.	2r	.	2r	.	2a-/	.	2cc\	.
.	.	16e-\)	.	16a-X/)	.	16ee-X\)	.	.	.	.	.	.	.	.	.	.	.	.	.	.	.	.	.	.	.	.	.	.
8A-\	.	(16c\	.	(16e-/	.	(16ee-\	.	.	.	.	.	.	.	.	.	.	.	.	.	.	.	.	.	.	.	.	.	.
.	.	16e-\JJ)	.	16a-/JJ)	.	16cc\JJ)	.	.	.	.	.	.	.	.	.	.	.	.	.	.	.	.	.	.	.	.	.	.
8A-\	.	(16c\LL	.	(16e-/LL	.	(16cc\LL	.	.	.	.	.	.	.	.	.	.	.	.	.	.	.	.	.	.	.	.	.	.
.	.	16e-\)	.	16a-/)	.	16a-\)	.	.	.	.	.	.	.	.	.	.	.	.	.	.	.	.	.	.	.	.	.	.
!	!	!	!	!	!	!	!	!	!	!	!	!	!	!	!LO:SIC:v:o=8e\	!	!	!	!	!	!	!	!	!	!	!	!	!
8A-\J	.	(16c\	.	(16e-/	.	(16a-\	.	8A-\	-so-	.	.	8A-\	-so-	.	8e-\	-ſo-	.	8cc\	-ſo-	.	.	.	.	.	.	.	.	.
.	.	16e-\JJ)	.	16a-/JJ)	.	16e-\JJ)	.	.	.	.	.	.	.	.	.	.	.	.	.	.	.	.	.	.	.	.	.	.
=6	=6	=6	=6	=6	=6	=6	=6	=6	=6	=6	=6	=6	=6	=6	=6	=6	=6	=6	=6	=6	=6	=6	=6	=6	=6	=6	=6	=6
.	.	.	.	.	.	.	.	.	.	.	.	.	.	.	.	.	.	.	.	.	.	.	.	.	.	.	8qqee-/	.
*	*	*2\right	*	*	*	*	*	*	*	*	*	*	*	*	*	*	*	*	*	*	*	*	*	*	*	*	*	*
*	*	*tremolo	*	*tremolo	*	*	*	*	*	*	*	*	*	*	*	*	*	*	*	*	*	*	*	*	*	*	*	*
!	!	!	!	!	!	!	!	!	!	!	!	!	!	!	!	!	!	!	!	!	!LO:TX:a:t=3	!	!LO:TX:a:t=3	!	!	!	!	!
8G\L	5 3	16b-\LL	.	16dd-\LL	.	16ee-\LL	.	4G\	-la-	.	.	4B-\	-la-	.	4e-\	-la-	.	4dd-X\	-la-	.	0r	.	0r	.	4g/	.	2dd-X\	.
.	.	16b-\	.	16dd-\	.	16ee-\	.	.	.	.	.	.	.	.	.	.	.	.	.	.	.	.	.	.	.	.	.	.
8G\	.	16b-\	.	16dd-\	.	16ee-\	.	.	.	.	.	.	.	.	.	.	.	.	.	.	.	.	.	.	.	.	.	.
.	.	16b-\	.	16dd-\JJ	.	16ee-\JJ	.	.	.	.	.	.	.	.	.	.	.	.	.	.	.	.	.	.	.	.	.	.
*	*	*	*	*	*	*tremolo	*	*	*	*	*	*	*	*	*	*	*	*	*	*	*	*	*	*	*	*	*	*
8G\	.	16b-\	.	16dd-\LL	.	16ee-\LL	.	4G\	-trix	.	.	4B-\	-trix	.	4e-\	-trix	.	4dd-\	-trix	.	.	.	.	.	4b-/	.	.	.
.	.	16b-\	.	16dd-\	.	16ee-\	.	.	.	.	.	.	.	.	.	.	.	.	.	.	.	.	.	.	.	.	.	.
8G\J	.	16b-\	.	16dd-\	.	16ee-\	.	.	.	.	.	.	.	.	.	.	.	.	.	.	.	.	.	.	.	.	.	.
.	.	16b-\JJ	.	16dd-\JJ	.	16ee-\JJ	.	.	.	.	.	.	.	.	.	.	.	.	.	.	.	.	.	.	.	.	.	.
*	*	*Xtremolo	*	*Xtremolo	*	*Xtremolo	*	*	*	*	*	*	*	*	*	*	*	*	*	*	*	*	*	*	*	*	*	*
8A-\L	3	(16c\LL	.	16e-/LL	.	(16cc\LL	.	4.A-\	af-	.	.	4.A-\	af-	.	4.e-\	af-	.	4.cc\	af-	.	.	.	.	.	2a-/	.	2cc\	.
.	.	16e-\)	.	16a-/	.	16ee-\)	.	.	.	.	.	.	.	.	.	.	.	.	.	.	.	.	.	.	.	.	.	.
8A-\	.	(16c\	.	16e-/	.	(16ee-\	.	.	.	.	.	.	.	.	.	.	.	.	.	.	.	.	.	.	.	.	.	.
.	.	16e-\JJ)	.	16a-/JJ	.	16cc\JJ)	.	.	.	.	.	.	.	.	.	.	.	.	.	.	.	.	.	.	.	.	.	.
8A-\	.	(16c\LL	.	(16e-/LL	.	(16cc\LL	.	.	.	.	.	.	.	.	.	.	.	.	.	.	.	.	.	.	.	.	.	.
.	.	16e-\)	.	16a-/)	.	16a-\)	.	.	.	.	.	.	.	.	.	.	.	.	.	.	.	.	.	.	.	.	.	.
8A-\J	.	(16c\	.	(16f/	.	(16a-\	.	8A-\	-fli-	.	.	8A-\	-fli-	.	8e-\	-fli-	.	8cc\	-fli-	.	.	.	.	.	.	.	.	.
.	.	16e-\JJ)	.	16a-/JJ)	.	16f\JJ)	.	.	.	.	.	.	.	.	.	.	.	.	.	.	.	.	.	.	.	.	.	.
=7	=7	=7	=7	=7	=7	=7	=7	=7	=7	=7	=7	=7	=7	=7	=7	=7	=7	=7	=7	=7	=7	=7	=7	=7	=7	=7	=7	=7
*	*	*	*	*2\right	*	*	*	*	*	*	*	*	*	*	*	*	*	*	*	*	*	*	*	*	*	*	*	*
*	*	*tremolo	*	*tremolo	*	*tremolo	*	*	*	*	*	*	*	*	*	*	*	*	*	*	*	*	*	*	*	*	*	*
8G\L	6 5 3	16b-\LL	.	16dd-\LL	.	16ee-\LL	.	4G\	-cto-	.	.	4B-\	-cto-	.	4e-\	-cto-	.	4dd-\	-cto-	.	.	.	.	.	4g/	.	2dd-\	.
.	.	16b-\	.	16dd-\	.	16ee-\	.	.	.	.	.	.	.	.	.	.	.	.	.	.	.	.	.	.	.	.	.	.
8G\	.	16b-\	.	16dd-\	.	16ee-\	.	.	.	.	.	.	.	.	.	.	.	.	.	.	.	.	.	.	.	.	.	.
.	.	16b-\	.	16dd-\	.	16ee-\JJ	.	.	.	.	.	.	.	.	.	.	.	.	.	.	.	.	.	.	.	.	.	.
8G\	.	16b-\	.	16dd-\	.	16ee-\LL	.	4G\	-rum	.	.	4B-\	-rum	.	4e-\	-rum	.	4dd-\	-rum	.	.	.	.	.	4b-/	.	.	.
.	.	16b-\	.	16dd-\	.	16ee-\	.	.	.	.	.	.	.	.	.	.	.	.	.	.	.	.	.	.	.	.	.	.
8G\J	.	16b-\	.	16dd-\	.	16ee-\	.	.	.	.	.	.	.	.	.	.	.	.	.	.	.	.	.	.	.	.	.	.
.	.	16b-\JJ	.	16dd-\JJ	.	16ee-\JJ	.	.	.	.	.	.	.	.	.	.	.	.	.	.	.	.	.	.	.	.	.	.
*Xtremolo	*	*Xtremolo	*	*Xtremolo	*	*Xtremolo	*	*	*	*	*	*	*	*	*	*	*	*	*	*	*	*	*	*	*	*	*	*
8A-\	3	16r	.	16r	.	16r	.	4A-\	o-	.	.	4e-\	o-	.	4a-\	o-	.	4cc\	o-	.	.	.	.	.	8a-/L	.	8cc\L	.
.	.	16d-'\LL	.	16cc'\LL	.	16aa-'\LL	.	.	.	.	.	.	.	.	.	.	.	.	.	.	.	.	.	.	.	.	.	.
8r	.	16d-'\	.	16cc'\	.	16aa-'\	.	.	.	.	.	.	.	.	.	.	.	.	.	.	.	.	.	.	8cc/J	.	8aa-\J	.
.	.	16d-'\JJ	.	16cc'\JJ	.	16aa-'\JJ	.	.	.	.	.	.	.	.	.	.	.	.	.	.	.	.	.	.	.	.	.	.
8D-\	3	16r	.	16r	.	16r	.	8.D-/	-ra	.	.	8.d-\	-ra	.	8.a-\	-ra	.	8.ff\	-ra	.	.	.	.	.	4dd-\	.	4ff\	.
.	.	16a-'\LL	.	16dd-'\LL	.	16ff'\LL	.	.	.	.	.	.	.	.	.	.	.	.	.	.	.	.	.	.	.	.	.	.
8r	.	16a-'\	.	16dd-'\	.	16ff'\	.	.	.	.	.	.	.	.	.	.	.	.	.	.	.	.	.	.	.	.	.	.
.	.	16a-'\JJ	.	16dd-'\JJ	.	16ff'\JJ	.	16BB-/	pro	.	.	16d-\	pro	.	16a-\	pro	.	16ff\	pro	.	.	.	.	.	.	.	.	.
!LO:LB:g=original	!	!	!	!	!	!	!	!	!	!	!	!	!	!	!	!	!	!	!	!	!	!	!	!	!	!	!LO:LB:g=original	!
=8	=8	=8	=8	=8	=8	=8	=8	=8	=8	=8	=8	=8	=8	=8	=8	=8	=8	=8	=8	=8	=8	=8	=8	=8	=8	=8	=8	=8
*	*	*	*	*	*	*	*	*2\right	*	*	*	*	*	*	*	*	*	*	*	*	*	*	*	*	*	*	*	*
8E-\	8 6	16r	.	16r	.	16r	.	2E-\	no-	.	.	(4c\	no-	.	(4a-\	no-	.	(4ee-\	no-	.	1r	.	1r	.	4cc\	.	4ee-\	.
.	.	16a-'\LL	.	16cc'\LL	.	16ee-'\LL	.	.	.	.	.	.	.	.	.	.	.	.	.	.	.	.	.	.	.	.	.	.
8r	.	16a-'\	.	16cc'\	.	16ee-'\	.	.	.	.	.	.	.	.	.	.	.	.	.	.	.	.	.	.	.	.	.	.
.	.	16a-'\JJ	.	16cc'\JJ	.	16ee-'\JJ	.	.	.	.	.	.	.	.	.	.	.	.	.	.	.	.	.	.	.	.	.	.
8EE-/	3 7	16r	.	16r	.	16r	.	.	.	.	.	4d-\)	.	.	4e-\)	.	.	4g\)	.	.	.	.	.	.	4e-/	.	4b-/	.
.	.	16e-'\LL	.	16d-'/LL	.	16gLL 16B-'/	.	.	.	.	.	.	.	.	.	.	.	.	.	.	.	.	.	.	.	.	.	.
8r	.	16e-'\	.	16d-'/	.	16g 16B-'/	.	.	.	.	.	.	.	.	.	.	.	.	.	.	.	.	.	.	.	.	.	.
.	.	16e-'\JJ	.	16d-'/JJ	.	16gJJ 16B-'/	.	.	.	.	.	.	.	.	.	.	.	.	.	.	.	.	.	.	.	.	.	.
!	!	!	!	!LO:LB:g=original	!	!	!	!	!	!	!	!	!	!	!	!	!	!	!	!	!	!	!	!	!LO:LB:g=original	!	!	!
4A-\	3	8e-\L	.	16c/LL	.	(16a-/LL	.	4A-\	-bis	.	.	4c\	-bis	.	4e-\	-bis	.	4a-\	-bis	.	.	.	.	.	8d-/	.	8a-/	.
.	.	.	.	16B-/	.	16g/)	.	.	.	.	.	.	.	.	.	.	.	.	.	.	.	.	.	.	.	.	.	.
.	.	8e-\J	.	16c/	.	(16a-/	.	.	.	.	.	.	.	.	.	.	.	.	.	.	.	.	.	.	8r	.	8r	.
.	.	.	.	16d-/JJ	.	16g/JJ)	.	.	.	.	.	.	.	.	.	.	.	.	.	.	.	.	.	.	.	.	.	.
16A-\LL|	.	8e-\	.	8c/	.	8a-/	.	4r	.	.	.	4r	.	.	4r	.	.	4r	.	.	.	.	.	.	4r	.	4r	.
16G\|	.	.	.	.	.	.	.	.	.	.	.	.	.	.	.	.	.	.	.	.	.	.	.	.	.	.	.	.
16F\|	.	8r	.	8r	.	8r	.	.	.	.	.	.	.	.	.	.	.	.	.	.	.	.	.	.	.	.	.	.
16En\JJ|	.	.	.	.	.	.	.	.	.	.	.	.	.	.	.	.	.	.	.	.	.	.	.	.	.	.	.	.
=9	=9	=9	=9	=9	=9	=9	=9	=9	=9	=9	=9	=9	=9	=9	=9	=9	=9	=9	=9	=9	=9	=9	=9	=9	=9	=9	=9	=9
*tremolo	*	*	*	*	*	*	*	*	*	*	*	*2\right	*	*	*2\right	*	*	*2\right	*	*	*	*	*	*	*	*	*	*
8F\L	5 3	16r	.	16r	.	16r	.	2F\	Au-	.	.	2c\	Au-	.	2a-\	Au-	.	2cc\	Au-	.	8F/	.	8f\	.	2a-/	.	2cc\	.
.	.	16f\LL|	.	16a-/LL|	.	16cc\LL|	.	.	.	.	.	.	.	.	.	.	.	.	.	.	.	.	.	.	.	.	.	.
8F\	.	(16f\	.	(16a-/	.	(16cc\	.	.	.	.	.	.	.	.	.	.	.	.	.	.	8r	.	8r	.	.	.	.	.
.	.	16c\JJ)	.	16f/JJ)	.	16a-\JJ)	.	.	.	.	.	.	.	.	.	.	.	.	.	.	.	.	.	.	.	.	.	.
8F\	.	16r	.	16r	.	16r	.	.	.	.	.	.	.	.	.	.	.	.	.	.	8F/	.	8f\	.	.	.	.	.
.	.	16c'\LL	.	16a-/LL|	.	16ff\LL|	.	.	.	.	.	.	.	.	.	.	.	.	.	.	.	.	.	.	.	.	.	.
8F\J	.	16c'\	.	(16a-/	.	(16ff\	.	.	.	.	.	.	.	.	.	.	.	.	.	.	8r	.	8r	.	.	.	.	.
.	.	16c'\JJ	.	16f/JJ)	.	16cc\JJ)	.	.	.	.	.	.	.	.	.	.	.	.	.	.	.	.	.	.	.	.	.	.
!	!	!LO:LB:g=original	!	!	!	!	!	!	!	!	!	!	!	!	!	!	!	!	!	!	!LO:LB:g=original	!	!	!	!	!	!	!
8G\L	3 6\	8c\L	.	(16a-/LL	.	(16cc\LL	.	16G\	-xi-	.	.	16c\	-xi-	.	16a-\	-xi-	.	16cc\	-xi-	.	8C/L	.	8c/L	.	(16a-/LL	.	(16cc\LL	.
.	.	.	.	16g/)	.	16b-\)	.	16G\	-li-	.	.	16c\	-li-	.	16g\	-li-	.	16b-\	-li-	.	.	.	.	.	16g/J)	.	16b-\J)	.
8G\	.	(16c\L	.	16g/	.	(16b-\	.	8G\	-um	.	.	8c\	-um	.	8g\	-um	.	8b-\	-um	.	8C/J	.	8c/J	.	8g/J	.	8b-\J	.
.	.	16en\JJ)	.	16g/JJ	.	16g\JJ)	.	.	.	.	.	.	.	.	.	.	.	.	.	.	.	.	.	.	.	.	.	.
8G\	.	(16c/LL	.	(16G/LL	.	(16en/LL	.	4r	.	.	.	4r	.	.	4r	.	.	4r	.	.	4r	.	4r	.	4r	.	4r	.
.	.	16G/)	.	16en/)	.	16c/	.	.	.	.	.	.	.	.	.	.	.	.	.	.	.	.	.	.	.	.	.	.
8G\J	.	16c/|	.	(16G/	.	16e/)	.	.	.	.	.	.	.	.	.	.	.	.	.	.	.	.	.	.	.	.	.	.
.	.	16c/JJ|	.	16e/JJ)	.	16g/JJ|	.	.	.	.	.	.	.	.	.	.	.	.	.	.	.	.	.	.	.	.	.	.
!	!	!	!	!	!	!LO:LB:g=original	!	!	!	!	!	!	!	!	!	!	!	!	!	!	!	!	!LO:LB:g=original	!	!	!	!	!
=10	=10	=10	=10	=10	=10	=10	=10	=10	=10	=10	=10	=10	=10	=10	=10	=10	=10	=10	=10	=10	=10	=10	=10	=10	=10	=10	=10	=10
8C/L	7 n	16r	.	16r	.	16r	.	4C/	Chri-	.	.	4en\	Chri-	.	4g\	Chri-	.	4b-\	Chri-	.	8C/	.	8c/	.	2g/	.	2b-/	.
.	.	16en\LL|	.	16g/LL|	.	16b-\LL|	.	.	.	.	.	.	.	.	.	.	.	.	.	.	.	.	.	.	.	.	.	.
8C/	.	(16e\	.	(16g/	.	(16b-\	.	.	.	.	.	.	.	.	.	.	.	.	.	.	8r	.	8r	.	.	.	.	.
.	.	16c\JJ)	.	16en/JJ)	.	16g\JJ)	.	.	.	.	.	.	.	.	.	.	.	.	.	.	.	.	.	.	.	.	.	.
8C/	.	16r	.	(16G/LL	.	(16en/LL	.	8En/	-sti-	.	.	8e\	-sti-	.	8g\	-sti-	.	8b-\	-sti-	.	8C/	.	8c/	.	.	.	.	.
.	.	16g\LL|	.	16en/)	.	16c/	.	.	.	.	.	.	.	.	.	.	.	.	.	.	.	.	.	.	.	.	.	.
8C/J	.	(16c\	.	(16e/	.	16g/)	.	8C/	-a-	.	.	8e\	-a-	.	8g\	-a-	.	8b-\	-a-	.	8r	.	8r	.	.	.	.	.
.	.	16en\JJ)	.	16g/JJ)	.	16b-/JJ|	.	.	.	.	.	.	.	.	.	.	.	.	.	.	.	.	.	.	.	.	.	.
!	!	!	!	!	!	!	!	!	!	!	!	!LO:LB:g=original	!	!	!LO:LB:g=original	!	!	!	!	!	!	!	!	!	!	!	!	!
8F\L	3	8c\L	.	(16g/LL	.	16b-/LL	.	4F\	-no-	.	.	4A-\	-no-	.	8g\L	-no-	.	8b-\L	-no-	.	8F/L	.	8c/L	.	8g/L	.	(8b-/L	.
.	.	.	.	16f/	.	16a-/	.	.	.	.	.	.	.	.	.	.	.	.	.	.	.	.	.	.	.	.	.	.
8F\	.	8c\J	.	16e/	.	16g/	.	.	.	.	.	.	.	.	8f\J	.	.	8a-\J	.	.	8F/J	.	8c/J	.	8f/J	.	8a-/J)	.
.	.	.	.	16f/JJ)	.	16a-/JJ	.	.	.	.	.	.	.	.	.	.	.	.	.	.	.	.	.	.	.	.	.	.
!	!	!	!	!	!	!	!	!	!	!	!	!	!	!	!	!	!	!LO:LB:g=original	!	!	!	!	!	!	!	!	!	!
8F\	.	16r	.	16r	.	16r	.	4FF/	-rum	.	.	4A-\	-rum	.	4f\	-rum	.	4a-\	-rum	.	8F/	.	8c/	.	4f/	.	4a-/	.
.	.	16c'\LL	.	16f'/LL	.	16a-'/LL	.	.	.	.	.	.	.	.	.	.	.	.	.	.	.	.	.	.	.	.	.	.
8F\J	.	16c'\	.	16f'/	.	16a-'/	.	.	.	.	.	.	.	.	.	.	.	.	.	.	8r	.	8r	.	.	.	.	.
.	.	16c'\JJ	.	16f'/JJ	.	16a-'/JJ	.	.	.	.	.	.	.	.	.	.	.	.	.	.	.	.	.	.	.	.	.	.
*Xtremolo	*	*	*	*	*	*	*	*	*	*	*	*	*	*	*	*	*	*	*	*	*	*	*	*	*	*	*	*
!	!	!	!	!	!	!	!	!LO:LB:g=original	!	!	!	!	!	!	!	!	!	!	!	!	!	!	!	!	!	!	!	!
=11	=11	=11	=11	=11	=11	=11	=11	=11	=11	=11	=11	=11	=11	=11	=11	=11	=11	=11	=11	=11	=11	=11	=11	=11	=11	=11	=11	=11
8F\	3	8c\	.	(16f/LL	.	(16a-\LL	.	4r	.	.	.	4r	.	.	4r	.	.	4r	.	.	2r	.	2r	.	4r	.	4r	.
.	.	.	.	16a-/)	.	16cc\)	.	.	.	.	.	.	.	.	.	.	.	.	.	.	.	.	.	.	.	.	.	.
8r	.	8r	.	16a-'/	.	16cc'\	.	.	.	.	.	.	.	.	.	.	.	.	.	.	.	.	.	.	.	.	.	.
.	.	.	.	16a-'/JJ	.	16cc'\JJ	.	.	.	.	.	.	.	.	.	.	.	.	.	.	.	.	.	.	.	.	.	.
*	*	*	*	*tremolo	*	*	*	*	*	*	*	*	*	*	*	*	*	*	*	*	*	*	*	*	*	*	*	*
8r	.	4r	.	16a-/LL	.	(16cc\LL	.	8r	.	.	.	8r	.	.	8r	.	.	8r	.	.	.	.	.	.	8r	.	8r	.
.	.	.	.	16a-/	.	16ff\)	.	.	.	.	.	.	.	.	.	.	.	.	.	.	.	.	.	.	.	.	.	.
8F\	6	.	.	16a-/	.	16ff'\	.	8F\	o-	.	.	8c\	o-	.	8a-\	o-	.	8ff\	o-	.	.	.	.	.	8a-/	.	8ff\	.
.	.	.	.	16a-/JJ	.	16ff'\JJ	.	.	.	.	.	.	.	.	.	.	.	.	.	.	.	.	.	.	.	.	.	.
*	*	*	*	*Xtremolo	*	*	*	*	*	*	*	*	*	*	*	*	*	*	*	*	*	*	*	*	*	*	*	*
!LO:TX:t=P:problem:mixed beam	!	!	!	!	!	!LO:TX:a:i:t=t&colon;	!	!	!	!	!	!	!	!	!	!	!	!	!	!	!	!	!	!	!	!	!	!
8B-\L	.	8enL 8G/	.	8.b-/L	.	8.dd-X\L	.	8.B-\	-ra	.	.	8.en\	-ra	.	8.b-\	-ra	.	8.dd-\	-ra	.	4r	.	4r	.	8.b-/L	.	(8.dd-\L	.
8G\	.	8eJ 8G/	.	.	.	.	.	.	.	.	.	.	.	.	.	.	.	.	.	.	.	.	.	.	.	.	.	.
.	.	.	.	32a-/LL	.	(32cc\LL	.	16G\	pro	.	.	16e\	pro	.	32a-\LLL	pro	.	32cc\LLL	pro	.	.	.	.	.	(32a-/LL	.	32cc\LL	.
.	.	.	.	32g/JJJ	.	32b-\JJJ)	.	.	.	.	.	.	.	.	32g\JJJ	.	.	32b-\JJJ	.	.	.	.	.	.	32g/JJJ)	.	32b-\JJJ)	.
!	!	!	!	!	!	!	!	!LO:TX:t=P:problem:mixed beam	!	!	!	!	!	!	!	!	!	!	!	!	!	!	!	!	!	!	!	!
8c\	6 4	8c/L	.	8f/L	.	8a-/L	.	8c\L	no-	.	.	4c\	no-	.	8f\L	no-	.	8a-\L	no-	.	8c/L	.	8c/L	.	8a-/L	.	8ff\L	.
8C/J	5 n	8c/J	.	8en/J	.	8g/J	.	8C/J	.	.	.	.	.	.	8en\J	.	.	8g\J	.	.	8c/J	.	8c/J	.	8g/J	.	8een\J	.
=12	=12	=12	=12	=12	=12	=12	=12	=12	=12	=12	=12	=12	=12	=12	=12	=12	=12	=12	=12	=12	=12	=12	=12	=12	=12	=12	=12	=12
*	*	*	*	*	*	*	*^	*	*	*	*	*	*	*	*	*	*	*	*	*	*	*	*	*	*	*	*	*
!	!	!	!	!	!LO:DY:color=red	!	!	!	!	!	!	!	!	!	!	!	!	!	!	!	!	!	!	!	!	!	!	!	!
4F\	.	8c/	.	8f/L	p	8f/L	.	.	4F\	-bis	.	.	4c\	-bis	.	4f\	-bis	.	4f/	-bis	.	4F/	.	4c/	.	4a-/	.	4ff\	.
!	!	!	!	!	!	!	!LO:DY:a:t=p&colon;	!LO:DY:color=red	!	!	!	!	!	!	!	!	!	!	!	!	!	!	!	!	!	!	!	!	!
.	.	8r	.	16r	.	(16cc/L	p	p	.	.	.	.	.	.	.	.	.	.	.	.	.	.	.	.	.	.	.	.	.
.	.	.	.	16d-/Jk	.	16a-/JJ)	.	.	.	.	.	.	.	.	.	.	.	.	.	.	.	.	.	.	.	.	.	.	.
4r	.	4r	.	8B-/L	.	(16a-/LL	.	.	4r	.	.	.	4r	.	.	4r	.	.	4r	.	.	4r	.	4r	.	4r	.	4r	.
.	.	.	.	.	.	16g/)	.	.	.	.	.	.	.	.	.	.	.	.	.	.	.	.	.	.	.	.	.	.	.
.	.	.	.	8A-/J	.	(16g/	.	.	.	.	.	.	.	.	.	.	.	.	.	.	.	.	.	.	.	.	.	.	.
.	.	.	.	.	.	16f/JJ)	.	.	.	.	.	.	.	.	.	.	.	.	.	.	.	.	.	.	.	.	.	.	.
*	*	*	*	*tremolo	*	*	*	*	*	*	*	*	*	*	*	*	*	*	*	*	*	*	*	*	*	*	*	*	*
!	!	!	!	!	!LO:DY:color=red	!	!	!LO:DY:color=red	!	!	!	!	!	!	!	!	!	!	!	!	!	!	!	!	!	!	!	!	!
8CC/L|	.	8c\L	.	8G/L	f	8en/L	.	f	2r	.	.	.	2r	.	.	2r	.	.	2r	.	.	8r	.	8r	.	2r	.	2r	.
8CC/|	.	8c\	.	8G/	.	8e/	.	.	.	.	.	.	.	.	.	.	.	.	.	.	.	8C/L	.	8c/L	.	.	.	.	.
8CC/|	.	8c\	.	8G/	.	8e/	.	.	.	.	.	.	.	.	.	.	.	.	.	.	.	8C/	.	8c/	.	.	.	.	.
8CC/J|	.	8c\J	.	8G/J	.	8e/J	.	.	.	.	.	.	.	.	.	.	.	.	.	.	.	8C/J	.	8c/J	.	.	.	.	.
*	*	*	*	*Xtremolo	*	*	*	*	*	*	*	*	*	*	*	*	*	*	*	*	*	*	*	*	*	*	*	*	*
*	*	*	*	*	*	*	*v	*v	*	*	*	*	*	*	*	*	*	*	*	*	*	*	*	*	*	*	*	*	*
=13	=13	=13	=13	=13	=13	=13	=13	=13	=13	=13	=13	=13	=13	=13	=13	=13	=13	=13	=13	=13	=13	=13	=13	=13	=13	=13	=13	=13
!	!	!	!	!	!	!LO:SIC:v:o=2e-/	!	!LO:TX:a:t=1	!	!	!	!	!	!	!	!	!	!	!	!	!	!	!	!	!LO:TX:a:t=i	!	!	!
2CC/|	.	2c\	.	2G/	.	2en/	.	1r	.	.	.	1r	.	.	1r	.	.	1r	.	.	2C/	.	2c/	.	1r	.	1r	.
!	!	!	!	!	!	!LO:TX:b:i:t=Volti Regina %:rj	!	!	!	!	!	!	!	!	!	!	!	!	!	!	!	!	!	!	!	!	!	!
2r	.	2r	.	2r	.	2r	.	.	.	.	.	.	.	.	.	.	.	.	.	.	2r	.	2r	.	.	.	.	.
==	==	==	==	==	==	==	==	==	==	==	==	==	==	==	==	==	==	==	==	==	==	==	==	==	==	==	==	==
*-	*-	*-	*-	*-	*-	*-	*-	*-	*-	*-	*-	*-	*-	*-	*-	*-	*-	*-	*-	*-	*-	*-	*-	*-	*-	*-	*-	*-
!!!system-decoration: [(g1)][(g2)][(g3)][(g4)]<s12>
!!!RDF**kern: < = below
!!!RDF**kern: | = vertical stroke
!!!ENC: Berenika Jozajtis
!!!END: 2020-11-06
!!!ENC: Andrzej Kubiczek
!!!END: 2022-05-01
